svgs/icons/lg/plane-seat.svg

<svg xmlns="http://www.w3.org/2000/svg" viewBox="0 0 24 24" enable-background="new 0 0 24 24"><path d="M16.542 17c.829 0 1.5-.672 1.5-1.5s-.671-1.5-1.5-1.5h-4.262c-.503 0-1.001-.166-1.403-.468-.39-.292-.674-.691-.85-1.229l-1.943-5.08v-.223h.916c.552 0 1-.448 1-1v-2c0-.552-.448-1-1-1h-1v.027c-.199-.595-.754-1.027-1.417-1.027-.829 0-1.5.671-1.5 1.5v4c0 .183.034.365.099.536l2.016 5.263c.341 1.057.99 1.967 1.878 2.634.287.215.6.388.923.541v3.526h-1.415c-1.105 0-2 .895-2 2h9.958c0-1.105-.895-2-2-2h-1.542v-3h3.542z" fill="#34363D"/></svg>

<svg xmlns="http://www.w3.org/2000/svg" viewBox="0 0 24 24"><path d="M16.542 17a1.5 1.5 0 1 0 0-3H12.28a2.35 2.35 0 0 1-1.403-.468c-.39-.292-.674-.691-.85-1.229l-1.943-5.08V7H9a1 1 0 0 0 1-1V4a1 1 0 0 0-1-1H8v.027a1.495 1.495 0 0 0-2.917.473v4c0 .183.034.365.099.536l2.016 5.263a5.318 5.318 0 0 0 1.878 2.634c.287.215.6.388.923.541V20H8.584a2 2 0 0 0-2 2h9.958a2 2 0 0 0-2-2H13v-3h3.542z" fill="#34363D"/></svg>
